X: 3
T: Night Ride To Armagh
R: reel
M: 4/4
L: 1/8
K: Dmaj
|~e3B ggfg| eBd(e e)gaf|d~A3 effe|dBAF DF (3Bcd|
|~e3B ggfg| eBd(e e)gaf|d~A3 effe|dBAF e2dc|
|B2EB DEBE| GAAG GAFE|DEFA defd|e2gf eBBA|
|B3d BAGB| DEG (3EEE AFE|DEFA defd|e6 (3Bcd|


Tune 9825	Setting 9825

